packages/icons/src/nav-builds.svg

<svg viewBox="0 0 16 16" fill="currentColor" xmlns="http://www.w3.org/2000/svg"><path fill-rule="evenodd" clip-rule="evenodd" d="M3.54606 4.0166C3.27276 4.0166 3.05009 4.23605 3.04612 4.50933L3.04595 11.5136C3.0419 11.7926 3.26691 12.0209 3.5459 12.0209L12.5266 12.0209C12.8027 12.0209 13.0266 11.797 13.0266 11.5209L13.0269 6.61121C13.0269 6.33506 13.2508 6.11121 13.5269 6.11121C13.8031 6.11121 14.0269 6.33506 14.0269 6.61121L14.0266 11.5209C14.0266 12.3493 13.355 13.0209 12.5266 13.0209L3.5459 13.0209C2.70894 13.0209 2.03388 12.3359 2.04606 11.4991L2.04622 4.49478C2.05815 3.67495 2.72615 3.0166 3.54606 3.0166H10.3498C10.6259 3.0166 10.8498 3.24046 10.8498 3.5166C10.8498 3.79274 10.6259 4.0166 10.3498 4.0166H3.54606Z" fill="#6B6D85"/><path fill-rule="evenodd" clip-rule="evenodd" d="M5.21896 5.09357C5.36217 4.99273 5.54258 4.97785 5.6981 5.05407L10.7241 7.51697C10.9044 7.60535 11.0204 7.80071 11.0204 8.01608C11.0204 8.23145 10.9044 8.4268 10.7241 8.51519L5.6981 10.9781C5.54258 11.0543 5.36217 11.0394 5.21896 10.9386C5.07574 10.8378 4.98926 10.6647 4.98926 10.479V5.55317C4.98926 5.36745 5.07574 5.19441 5.21896 5.09357ZM5.99445 6.39964V9.63252L9.29306 8.01608L5.99445 6.39964Z" fill="#6B6D85"/></svg>

<svg xmlns="http://www.w3.org/2000/svg" viewBox="0 0 18 11" fill="currentColor"><path fill="#6B6D85" fill-rule="evenodd" d="M3.546 4.017a.5.5 0 0 0-.5.492v7.005a.5.5 0 0 0 .5.507h8.98a.5.5 0 0 0 .5-.5V6.61a.5.5 0 0 1 1 0v4.91a1.5 1.5 0 0 1-1.5 1.5h-8.98a1.5 1.5 0 0 1-1.5-1.522V4.495a1.5 1.5 0 0 1 1.5-1.478h6.804a.5.5 0 0 1 0 1H3.546Z" clip-rule="evenodd"/><path fill="#6B6D85" fill-rule="evenodd" d="M5.219 5.094a.467.467 0 0 1 .48-.04l5.025 2.463c.18.088.296.284.296.5 0 .214-.116.41-.296.498l-5.026 2.463a.468.468 0 0 1-.479-.04.56.56 0 0 1-.23-.459V5.553a.56.56 0 0 1 .23-.46ZM5.994 6.4v3.233l3.3-1.617-3.3-1.616Z" clip-rule="evenodd"/></svg>
